!!!OTL: Ban - chnoic éireann &oacute;, S. 37
!!!id: I0503
**kern
*clefG2
*k[f#]
*D:
{8d
8f#
=1
8g
4g
8a
=2
8g
8f#
8e
8d
=3
4d
8f#
8a
=4
4b}
=5
{8dd
8b
=6
8a
8f#
8e
8d
=7
8B
8A
8B
8d
=8
[2d
=9
4d]}
=10
{8d
8f#
=11
8g
4g
8a
=12
8g
8f#
8e
8d
=13
4d
8d
8f#
=14
4b}
=15
{8dd
8b
=16
8a
8f#
8e
8d
=17
8B
8A
8B
8d
=18
[2d
=19
4d]}
=20
{8a
8b
=21
8.cc
16b
8cc
8dd
=22
8cc
8b
8a
8f#
=23
4a
8b
8dd
=24
4dd}
=25
{8a
8b
=26
8.cc
16b
8cc
8dd
=27
4b
8dd
8b
=28
8a
8f#
8e
8d
=29
4B}
=30
{8a
8b
=31
8.cc
16b
8cc
8dd
=32
8cc
8b
8a
8f#
=33
4d
8f#
8a
=34
4b}
=35
{8dd
8b
=36
8a
8f#
8e
8d
=37
8B
8A
8B
8d
=38
[2d
=39
4d]}
==
*-
!!!minrhy: 16
!!!meters: 2/4 ]  ZZ[8
!!!cut: Ban - chnoic éireann &oacute;, S. 37
!!!reg: Irland
!!!trd: O BOYLE, Sean: 25 Irish Folksongs, Dublin 1976
!!!rhy1: X_X_  X_X__X_  X_X_X_X_  X__X_X_  X__   (x2)
!!!rhy2: X_X_  X_X_X_X_  X_X_X_X_  X___  ^__
!!!key: I0503  16  D 2/4 ]  ZZ[8
!!!mod: HEPTATONIK MIXOLYDISCH]  AMBITUS[11
!!!kad: 6161+1-661
!!!akz: 4416_5-611_4416_5-611_7b7b5+1_7b65-6_7b7b16_5-611_
!!!fot: 'a__b__aw_b__c__d__e__b__
!!!for: 'a__b__a__b__c__d__c__b__
!!!fok: '~a_Vd_~a_Vd_~a_^d_~a_Vd_
!! PHRAS[AUFTAKTIG]
!!!fkt: ???
!! IRISCHE VKL.
!! PR[8] 2K[6] 2G[30] 3K[8] 3G[0] 4A[0] 4Ü[0] 5A[0] 6K[0] 6G[0]
!! 7K[0] 7G[0] 8A[0] MEHR[0] SI[44] ABS[50] SR[36] SP[8]
!! ST[24] 2k[12] 2g[28] 3k[4] 3g[4] 4d[0] 4ü[0] 5d[0] 6k[0] 6g[0]
!! 7k[0] 7g[0] 8d[0] mehr[0] si[48] dm[-4] sr[40] sp[8]
!! 1F[10] 2F[69] 3F[14] 4F[0] LF[0] 2P[0] 3P[7] 4P[0] TRI[0] DF[4] AB[59]
!! TF[0] U3K[0] U3[0] U4[0] U4Ü[0] U5[0] U6K[0] U6[0] U7K[0] U7[0]
!! N1[14] N2K[0] N2[10] N3K[24] N3[0] N4[22] N4Ü[0] N5[16] N6K[8] N6[0]
!!!n7k: 8] N7[0] O1[0] O2K[0] O2[0] O3K[0] O3[0] HÖ[0
!!!RNB: symbol: &oacute;= o acute  (UTF-8: Ã³)
